ion/mic-off.svg

<svg viewBox="0 0 512 512" xmlns="http://www.w3.org/2000/svg"><path fill="none" stroke="#000" stroke-linecap="round" stroke-miterlimit="10" stroke-width="32" d="M432 400L96 64"/><g><path d="M400 240v-31.55c0-8.61-6.62-16-15.23-16.43v0c-8.83-.43-16.33 6.38-16.76 15.21 -.02.25-.02.51-.02.76v32 -.001c0 8.2-.9 16.37-2.68 24.38v0c-.15.66.05 1.35.53 1.84l22.59 22.59v0c.78.78 2.04.78 2.82 0 .2-.21.36-.45.46-.73h0c5.48-15.44 8.28-31.71 8.27-48.09Z"/><path d="M256 352v0c-61.78-.2-111.81-50.23-112-112v-31.55c0-8.61-6.62-16-15.23-16.43v0c-8.83-.43-16.33 6.38-16.76 15.21 -.02.25-.02.51-.02.76v32c0 74 56.1 135.12 128 143.11v48.89h-47.55c-8.61 0-16 6.62-16.43 15.23v0c-.43 8.82 6.38 16.32 15.21 16.75 .25.01.51.01.76.01h127.55c8.61 0 16-6.62 16.43-15.23v0c.42-8.83-6.39-16.33-15.22-16.76 -.26-.02-.52-.02-.77-.02h-48v-48.89 0c18.21-2.03 35.86-7.54 52-16.22v0c1.94-1.06 2.65-3.49 1.6-5.43 -.19-.35-.42-.66-.7-.93l-18.4-18.39v0c-.9-.9-2.27-1.13-3.41-.58v0c-14.75 6.88-30.83 10.44-47.1 10.43Z"/><path d="M257.14 48v0c-27.63-.51-53.54 13.33-68.47 36.57l-.001-.001c-1.03 1.58-.8 3.66.54 5l143.38 143.43v0c.78.77 2.04.77 2.82-.01 .37-.38.58-.89.58-1.42v-102.67c0-43.91-35-80.31-78.86-80.91Z"/><path d="M179.41 215v0c-.79-.78-2.05-.78-2.83 0 -.38.37-.59.88-.59 1.41v22.58h-.001c.01 21.31 8.44 41.76 23.45 56.9h0c20.05 20.85 49.94 28.99 77.8 21.19v0c1.06-.3 1.68-1.41 1.38-2.47 -.1-.34-.28-.64-.53-.89Z"/></g></svg>

<svg xmlns="http://www.w3.org/2000/svg" width="512" height="512" viewBox="0 0 512 512"><line x1="432" y1="400" x2="96" y2="64" style="fill:none;stroke:#000;stroke-linecap:round;stroke-miterlimit:10;stroke-width:32px"/><path d="M400,240V208.45c0-8.61-6.62-16-15.23-16.43A16,16,0,0,0,368,208v32a111.68,111.68,0,0,1-2.68,24.38,2,2,0,0,0,.53,1.84l22.59,22.59a2,2,0,0,0,3.29-.72A143.27,143.27,0,0,0,400,240Z"/><path d="M256,352A112.36,112.36,0,0,1,144,240V208.45c0-8.61-6.62-16-15.23-16.43A16,16,0,0,0,112,208v32c0,74,56.1,135.12,128,143.11V432H192.45c-8.61,0-16,6.62-16.43,15.23A16,16,0,0,0,192,464H319.55c8.61,0,16-6.62,16.43-15.23A16,16,0,0,0,320,432H272V383.11a143.08,143.08,0,0,0,52-16.22,4,4,0,0,0,.91-6.35l-18.4-18.39a3,3,0,0,0-3.41-.58A111,111,0,0,1,256,352Z"/><path d="M257.14,48a79.66,79.66,0,0,0-68.47,36.57,4,4,0,0,0,.54,5L332.59,233a2,2,0,0,0,3.41-1.42V128.91C336,85,301,48.6,257.14,48Z"/><path d="M179.41,215a2,2,0,0,0-3.41,1.42V239a80.89,80.89,0,0,0,23.45,56.9,78.55,78.55,0,0,0,77.8,21.19,2,2,0,0,0,.86-3.35Z"/></svg>
